X: 1
T: Avskedsg\aangl\aaten
O: av Jon Erik Hall
B: Svenska Folkl\aatar f\"or tv\aa fioler
Z: 2006 John Chambers <jc@trillian.mit.edu>
M: 2/4
L: 1/16
K: Cm
V:1
|: G2GF   E2D2  |  C2CD   E2F2 \
|  GFAF   G2c2  | =BcdB   G2g2 \
|  fgfe   d2f2  |  e2ed   c4   |
|  G2=A=B c2Bc  |  d2d=B  G4   \
|  G=A=Bc d2e2  |  fgfe   d2g2 \
|  efed   c2e2  |  d2d=B  c4  :|
|: c'2c'2 g2fg  |  agfe   defg | e2ec d2d=B | G2G2 G2z2 \
|  c'2c'2 g2fg  |  agfe   defg | e2ec d2d=B | c2c2 c2z2 :|
|: g^fga  g2g=f |  d4    =Bcde \
|  f=efg  f2f_e |  c4     G4   \
|  e2ef   e4    |  dcde   d4   \
|  c2c2  =BcdB  |
|  G8 \
|  G^FGA  G2G=F | [D4G,4] =B,CDE \
|  F=EFG  F2F_E |  C4     G,4  \
|  E2EF   E4    |  DCDE   D4   |
|  C=B,CD EDCB, |  C6     z2  :|
V:2
|: [D2=B,2]G,2 =A,2B,2 | C2A,G, C2D2 \
| E2D2 EDCE | G=A=BG FEDB \
| dedc =BAGB | c2GF E4 |
| [F2D2][F2D2] [E2C2]FE | [F2G,2][F2G,2] [D4=B,4] \
| FEDC =B,2C2 | DEAG F2D2 \
| G2GF E2G2 | F2G2 E4 :|
|: e4 e2de | B2AG FEDE \
| G2_G2 F2FD | [D4=B,4] GFED \
| [E4C4] e2dc | =B2dc BG=AB \
| c2GE F2G2 | E2E2 E2z2 :|
|: [B2E2][B2E2] [B4D4] | F=EFG F_EFG \
| A2[=B2G2] [B2D2]AG | E4 [E4C4] \
| [G2C2][G2C2] [G4C4] | [F2A,2][F2A,2] [F4A,4] \
| [E2G,2][E2G,2] [F2G,2][F2G,2] |
| GD=B,D G,FED \
| =B,CB,C DC_B,A, | [F4G,4] G,=A,=B,C \
| A,2D2 G,=A,=B,2 | CDEF GFED \
| C2C2 C4 | A,2G,2 =B,4 |
| CG,=A,=B, C_B,_A,G, | C6 z2 :|
